!!!COM: Palestrina, Giovanni Perluigi da
!!!OPR: Missa Virtute magna
!!!OMD: Sanctus
!!!OTL: First Section
**kern	**kern	**kern	**kern
*Ibass	*Itenor	*Icalto	*Icant
!Bassus	!Tenor	!Altus	!Cantus
*clefF4	*clefGv2	*clefG2	*clefG2
*k[]	*k[]	*k[]	*k[]
*G:mix	*G:mix	*G:mix	*G:mix
*M4/2	*M4/2	*M4/2	*M4/2
=1	=1	=1	=1
1C	0r	0r	0r
1G	.	.	.
=2	=2	=2	=2
1G	0r	1r	0r
1F	.	1c	.
=3	=3	=3	=3
2E	0r	1g	1g
1G	.	.	.
.	.	1g	1dd
4F	.	.	.
4E	.	.	.
=4	=4	=4	=4
4D	0r	1f	1dd
4E	.	.	.
4F	.	.	.
4G	.	.	.
4A	.	1e	1cc
4B	.	.	.
2c	.	.	.
=5	=5	=5	=5
2.G	0r	2.g	2b
.	.	.	1dd
4A	.	8f	.
.	.	8e	.
2B	.	2d	.
2c	.	2e	4cc
.	.	.	4b
=6	=6	=6	=6
2d	0r	2f	2a
2G	.	2g	2b
2A	.	2e	[1cc
2F	.	2f	.
=7	=7	=7	=7
0G	1r	1d	2cc]
.	.	.	4b
.	.	.	4a
.	1G	2r	1b
.	.	[2g	.
=8	=8	=8	=8
0r	1d	2g]	1.a
.	.	4f	.
.	.	4e	.
.	1d	2f	.
.	.	2d	2b
=9	=9	=9	=9
1C	1c	1e	1cc
1G	2B	4d	1dd
.	.	4c	.
.	[2d	4B	.
.	.	4A	.
=10	=10	=10	=10
1G	2d]	2B	1g
.	4c	1e	.
.	4B	.	.
1F	2.A	.	1a
.	.	2d	.
.	4B	.	.
=11	=11	=11	=11
2E	2c	1e	2.g
1G	2B	.	.
.	.	.	4a
.	2.d	1r	2b
4F	.	.	[2a
4E	4c	.	.
=12	=12	=12	=12
2D	1B	1r	2a]
2E	.	.	2g#
1F	2A	1c	1a
.	[2c	.	.
=13	=13	=13	=13
2.E	4c]	1g	0r
.	4B	.	.
.	4G	.	.
4F	4A	.	.
2G	2B	1g	.
2E	[2c	.	.
=14	=14	=14	=14
1D	2c]	1f	1r
.	2B	.	.
1C	1c	2e	1g
.	.	[2g	.
=15	=15	=15	=15
1r	0r	2g]	1dd
.	.	4f	.
.	.	4e	.
1D	.	4d	1dd
.	.	4e	.
.	.	[2f	.
=16	=16	=16	=16
1A	1c	4f]	1cc
.	.	4e	.
.	.	1e	.
1G	1g	.	2b
.	.	4d	[2dd
.	.	4c	.
=17	=17	=17	=17
1r	1g	2B	2dd]
.	.	2c	4cc
.	.	.	4b
1D	1f	1d	2a
.	.	.	2b
=18	=18	=18	=18
1A	1e	2.c	1cc
.	.	4d	.
2.G	[1g	2e	1b
.	.	[2d	.
4A	.	.	.
=19	=19	=19	=19
4B	2g]	4d]	2.dd
4c	.	4e	.
1d	4f	4f	.
.	4e	4g	4ee
.	2d	1a	2ff
2c#	2e	.	[2ee
=20	=20	=20	=20
1d	1f	0a	4ee]
.	.	.	4dd
.	.	.	1dd
1A	1e	.	.
.	.	.	2cc#
=21	=21	=21	=21
1D	0d	2.f	[0dd
.	.	4g	.
2r	.	2a	.
[2G	.	[2b-	.
=22	=22	=22	=22
4G]	1r	2b-]	1dd]
4G	.	.	.
2F	.	2a	.
1B-	2r	4g	1r
.	.	4f	.
.	[2d	4f	.
.	.	8e	.
.	.	8d	.
=23	=23	=23	=23
1A	4d]	1e	0r
.	4d	.	.
.	2c	.	.
4D	1f	1d	.
4E	.	.	.
4F	.	.	.
4G	.	.	.
=24	=24	=24	=24
4A	1e	0r	2r
4G	.	.	.
4A	.	.	2.a
4B	.	.	.
2.c	4A	.	.
.	4B	.	4a
.	4c	.	2g
4B	4d	.	.
=25	=25	=25	=25
1A	4e	1r	1cc
.	4d	.	.
.	4e	.	.
.	4f#	.	.
1G	2.g	2r	1b
.	.	[2d	.
.	4f	.	.
=26	=26	=26	=26
1A	2e	4d]	1a
.	.	4d	.
.	2e	2c	.
4D	1d	1f	2r
4E	.	.	.
4F	.	.	[2dd
4G	.	.	.
=27	=27	=27	=27
1A	0r	1e	4dd]
.	.	.	4dd
.	.	.	2cc
1D	.	4d	1ff
.	.	4e	.
.	.	4f	.
.	.	4g	.
=28	=28	=28	=28
0r	0r	4a	2ee
.	.	4b	.
.	.	2.cc	4a
.	.	.	4b
.	.	.	4cc
.	.	4b	4dd
.	.	4g	4ee
.	.	4a	4cc
=29	=29	=29	=29
0r	2r	2.b-	2.dd
.	2.d	.	.
.	.	4a	4cc
.	.	4f	4a
.	4d	4g	4b
.	2c	[2a	[2cc
=30	=30	=30	=30
0r	1e	4a]	4cc]
.	.	4g	4b
.	.	1g	4b
.	.	.	8a
.	.	.	8g
.	1d	.	1a
.	.	2f#	.
=31	=31	=31	=31
2r	4G	2.g	2.g
.	4A	.	.
2.G	4B	.	.
.	4c	4f#	4a
.	4d	2g	4b
4G	4e	.	4cc
2F	[2f	[2a	[2dd
=32	=32	=32	=32
1A	4f]	2a]	4dd]
.	4e	.	4cc
.	4d	2f	1cc
.	4c	.	.
1G	1d	1g	.
.	.	.	2b
=33	=33	=33	=33
2.C	2.c	1e	1cc
4D	4B	.	.
4E	4G	2r	1r
4F	4A	.	.
2G	2B	[2d	.
=34	=34	=34	=34
2.F	2A	4d]	0r
.	.	4d	.
.	1c	2c	.
4E	.	.	.
1D	.	1f	.
.	2B	.	.
=35	=35	=35	=35
1C	2.c	1e	2r
.	.	.	2.g
.	4B	.	.
1D	2A	1d	.
.	.	.	4g
.	2A	.	2f
=36	=36	=36	=36
1G	2G	2.d	1b-
.	2.d	.	.
.	.	4e	.
1A	.	2f	1a
.	4d	.	.
.	2c	2e	.
=37	=37	=37	=37
1B-	1.f	2r	4d
.	.	.	4e
.	.	2.d	4f
.	.	.	4g
1A	.	.	4a
.	.	4d	4b
.	2e	2c	4cc
.	.	.	4a
=38	=38	=38	=38
1D	2.d	1f	2b-
.	.	.	2.a
.	4c	.	.
2E	2B	1e	.
.	.	.	4g
2C	2c	.	[2g
=39	=39	=39	=39
0D	1.A	1.d	2g]
.	.	.	4f
.	.	.	4e
.	.	.	2f#
.	2A	2d	2f#
=40	=40	=40	=40
[0G	[0G	[0d	[0g
=41	=41	=41	=41
0G]	0G]	0d]	0g]
*-	*-	*-	*-
!!!CDT: 1525/^1526/-1594/2/2
!!!OCY: Italia
!!!AGN: Mass (Parody)
!!!AST: renaissance, vocal
!!!ASW: Motet 1532 (Lasson)
!!!PWK: Masses, Book I
!!!RNB: Cadence finals: D
!!!YOR: Le Opere Complete, v. 1, p. 62
!!!YOO: Rome, Italy: Fratelli Scalera
!!!END: 1992//
!!!EED: John Miller
!!!YEC: Copyright 2000, John Miller
!!!YEN: United States of America
!!!YEM: Rights to all derivative electronic formats reserved.
!!!YEM: Refer to licensing agreement for further details.
!!!YEM: This file must be accompanied by the licensing agreement.
!!!YEM: A copy of the licensing agreement may be found at http://www.music-cog.ohio-state.edu/HumdrumDatabases/Palestrina/license.txt
!!!EMD: converted to Humdrum by Bret Aarden
